X: 21594
Q: "Slow."
M: 3/4
L: 1/8
K: F	% and Dm
[|\
c3 B (AG) | F3 G F2 | G3 F G2 | A2 d4 |\
c3 B (AG) | F3 G A2 | A3 ^G A2 | D4 z2 |\
c3 B (AG) | F3 G F2 | G4 FG | A2 d4 |\
c3 B (AG) | F3 G A2 | A3 ^G A2 | D4 z2 |]
[|\


